X: 539
T: the Fenian Stronghold   #2
R: waltz, air
%S: s:2 b:12(6+6)
B: O'Neill's 1850 #539
O: F.O'Neill
Z: Dave Wooldridge
N: Compacted via repeats and multiple endings [JC]
Q: "With feeling"
M: 3/4
L: 1/8
K: Bb	% and D dorian
"^A"|: F2 | B2 (Bc) (dB) | c2 f3 e |1 d2 B2 B2 | A2 F2 :|2 d2 B2 {d}c2 | B4 |][K:=e]
K: Dm
"^B"[|] c2 |: d2 (de) (fd) | c2 A2 F2 |1 G2 (GB) (AG) | F2 D2 A2 :|2 (G2 G)F (EF) | D4 |]
